packages/foundations/assets/icons/functional/images/human/cigarette_disabled.svg

<svg xmlns="http://www.w3.org/2000/svg" width="32" height="32" fill="none"><path fill="#1A1C1F" fill-rule="evenodd" d="M26.613 4.084c-.248.106-22.362 22.203-22.516 22.499-.298.573.124 1.329.783 1.404.467.052.575-.027 2.106-1.56l1.413-1.414L18 25.012c10.402-.001 9.966.011 10.616-.286.553-.254 1.056-.845 1.263-1.486.089-.277.108-.478.109-1.187 0-.476-.027-.968-.062-1.114-.215-.888-.914-1.599-1.825-1.854-.178-.05-1.85-.07-6.952-.084l-6.717-.018 6.754-6.758c6.069-6.074 6.757-6.779 6.79-6.962.09-.497-.115-.914-.564-1.143a.9.9 0 0 0-.799-.036M3.917 5.146c-.315.158-.507.419-.543.74-.038.336.062.579.393.956.16.182.377.504.482.715.184.369.19.403.168.837-.032.607-.245 1.036-.901 1.82-.61.73-.865 1.104-1.099 1.609-.565 1.223-.535 2.506.087 3.777.592 1.208 1.218 1.635 1.909 1.3a.97.97 0 0 0 .447-1.279 5 5 0 0 0-.347-.563c-.591-.826-.655-1.703-.189-2.577.089-.168.398-.588.687-.934.572-.687.922-1.238 1.146-1.806.582-1.477.274-2.927-.898-4.23-.443-.492-.862-.606-1.342-.365m.59 13.895c-.465.027-.719.069-.926.153a2.48 2.48 0 0 0-1.48 1.633c-.112.383-.128 1.809-.025 2.24.115.478.369.913.734 1.254.187.176.358.319.379.319s.407-.369.857-.82l.819-.819-.303-.025c-.216-.018-.335-.058-.419-.142-.108-.109-.116-.167-.116-.84v-.723l.149-.129c.149-.128.154-.129 1.414-.129h1.264L7.867 20l1.012-1.013-1.866.008a71 71 0 0 0-2.506.046m23.345 2.12c.11.111.123.18.139.755.02.704-.043.926-.29 1.02-.084.031-3.377.051-8.704.051h-8.569l.986-.988.986-.987 7.665.014 7.665.014z"/></svg>

<svg width="32" height="32" viewBox="0 0 32 32" fill="none" xmlns="http://www.w3.org/2000/svg"><path d="M26.613 4.084 C 26.365 4.190,4.251 26.287,4.097 26.583 C 3.799 27.156,4.221 27.912,4.880 27.987 C 5.347 28.039,5.455 27.960,6.986 26.427 L 8.399 25.013 18.000 25.012 C 28.402 25.011,27.966 25.023,28.616 24.726 C 29.169 24.472,29.672 23.881,29.879 23.240 C 29.968 22.963,29.987 22.762,29.988 22.053 C 29.988 21.577,29.961 21.085,29.926 20.939 C 29.711 20.051,29.012 19.340,28.101 19.085 C 27.923 19.035,26.251 19.015,21.149 19.001 L 14.432 18.983 21.186 12.225 C 27.255 6.151,27.943 5.446,27.976 5.263 C 28.066 4.766,27.861 4.349,27.412 4.120 C 27.142 3.982,26.880 3.970,26.613 4.084 M3.917 5.146 C 3.602 5.304,3.410 5.565,3.374 5.886 C 3.336 6.222,3.436 6.465,3.767 6.842 C 3.927 7.024,4.144 7.346,4.249 7.557 C 4.433 7.926,4.439 7.960,4.417 8.394 C 4.385 9.001,4.172 9.430,3.516 10.214 C 2.906 10.944,2.651 11.318,2.417 11.823 C 1.852 13.046,1.882 14.329,2.504 15.600 C 3.096 16.808,3.722 17.235,4.413 16.900 C 4.881 16.674,5.085 16.092,4.860 15.621 C 4.798 15.492,4.642 15.239,4.513 15.058 C 3.922 14.232,3.858 13.355,4.324 12.481 C 4.413 12.313,4.722 11.893,5.011 11.547 C 5.583 10.860,5.933 10.309,6.157 9.741 C 6.739 8.264,6.431 6.814,5.259 5.511 C 4.816 5.019,4.397 4.905,3.917 5.146 M4.507 19.041 C 4.042 19.068,3.788 19.110,3.581 19.194 C 2.846 19.491,2.324 20.067,2.101 20.827 C 1.989 21.210,1.973 22.636,2.076 23.067 C 2.191 23.545,2.445 23.980,2.810 24.321 C 2.997 24.497,3.168 24.640,3.189 24.640 C 3.211 24.640,3.596 24.271,4.046 23.820 L 4.865 23.001 4.562 22.976 C 4.346 22.958,4.227 22.918,4.143 22.834 C 4.035 22.725,4.027 22.667,4.027 21.994 L 4.027 21.271 4.176 21.142 C 4.325 21.014,4.330 21.013,5.590 21.013 L 6.854 21.013 7.867 20.000 L 8.879 18.987 7.013 18.995 C 5.986 19.000,4.859 19.020,4.507 19.041 M27.852 21.161 C 27.962 21.272,27.975 21.341,27.991 21.916 C 28.011 22.620,27.948 22.842,27.701 22.936 C 27.617 22.967,24.324 22.987,18.997 22.987 L 10.428 22.987 11.414 21.999 L 12.400 21.012 20.065 21.026 L 27.730 21.040 27.852 21.161 " fill="#1A1C1F" stroke="none" fill-rule="evenodd"></path></svg>
